X: 0813
T: MISS HAWKES'S REEL
B: Oliver Ditson "The Boston Collection of Instrumental Music" 1910 p.81 #3
F: http://conquest.imslp.info/files/imglnks/usimg/8/8f/IMSLP175643-PMLP309456-bostoncollection00bost_bw.pdf
%: 2012 John Chambers <jc:trillian.mit.edu>
M: 2/4
L: 1/16
K: G
d>c |\
B>GTG2 D>GTG2 | B>Gd>B g>dB>d | c>ATA2 F>ATA2 | c>ed>c B>cA>c |\
B>GTG2 D>GTG2 | B>Gd>B g>dB>d | (ce).d.c (Bc).A.B | G2B2G2 :|
|: d>c |\
B>dTd2 B>dTd2 | Bdef gdcB | c>eTe2 c>eTe2 | ceag fedc |\
B>dTd2 B>dTd2 | BGAB cdef | gdec BcAB | G2B2G2 :|

%%sep 1 1 500
%%sep 1 1 500
